X:106
T:Waterloo Dance,The. RH.106
T:Timour The Tartar,aka. RH.106
T:Blanchland Races,aka. RH.106
R:Reel
S:Rev.R.Harrison’s MS,c1815,Cumbria
N:Marked “by H.R.Bishop”.
O:England
A:Temple Sowerby,Cumbria
Z:vmp.Simon Wilson. Review PJH, 2008.
M:C
L:1/8
Q:2/4=100
K:A
E2|A2c/B/A eAcA|eAaA gAfA|\
eA c/B/A eAcA|BEcE dEBE|!
A2c/B/A eAcA|eAaA gAfA|\
efec eaec|BABc A2:|!
E2|G2G/F/E BEGE|BEdE cEBE|\
c2c/B/A eAcA|eAfA eAcA|!
eA c/B/A aAfA|eA c/B/A aAfA|\
eAfe dcBA|GABA GEFG|!
A2c/B/A eAcA|eAaA gAfA|\
eA c/B/A eAcA|BEcE dEBE|!
A2c/B/A eAcA|eAaA gAfA|\
efed eaec|{c}BABc A2|]

